X: 1
P: Lovely Cumbria
C: John Renton
R: air
Z: 2005 John Chambers <jc:trillian.mit.edu>
M: C
L: 1/8
K: F
AG \
| F4 C2 DE | F3 G A2 c2 | f3 e d2 ef | c4- c2 AG |
|1 F2 D2 B3 c | A3 G F2 GA | B3 c A2 F2 | FE DC C2 DE :|
|2 F2 D2 B3 c | A3 G F2 GA | B3 G FE DC | F4- "fine"F2 |]
c2 \
| f3 g f3 e | f2 c2 A2 c2 | f3 g f2 ed | c4- c2 F2 |
| d3 c B2 cd | c2 A2 F2 GA | B2 A2 G2 F2 | FE DC C2 "d.C."DE |]
